X: 5
T: The Bohola
R: jig
M: 6/8
L: 1/8
K: Dmaj
|:fef d3|FAA A3|ABd edB|efe ede|
fef d3|FAA A3|ABd edB|ded d3:||
|:fef a2f|fef a2f|efe edB|efe ede|
[1 fef a2f|fef a2f|efe edB|d3 d2e:|
[2 fef d3|FAA A3|ABd edB|ded d3||


Tune 414	Setting 2111

